localPackages/DesignSystem/Sources/DesignSystem/Resources/Assets.xcassets/IconSet/ic-locks.imageset/ic-locks.svg

<svg width="24" height="24" viewBox="0 0 24 24" fill="none" xmlns="http://www.w3.org/2000/svg">
<g id="ic-locks">
<path id="Icon" fill-rule="evenodd" clip-rule="evenodd" d="M6.75 6H7.26592H7.31903L7.35 6L12.75 6C12.75 4.34315 11.4069 3 9.75 3C8.09315 3 6.75 4.34315 6.75 6ZM5.25 6V6.11274C5.03804 6.15919 4.83461 6.22682 4.63803 6.32698C4.07354 6.6146 3.6146 7.07354 3.32698 7.63803C3.14151 8.00203 3.06759 8.38956 3.03315 8.81113C2.99998 9.21702 2.99999 9.71529 3 10.319V10.319V10.35V15.15V15.181V15.181C2.99999 15.7847 2.99998 16.283 3.03315 16.6889C3.06759 17.1104 3.14151 17.498 3.32698 17.862C3.6146 18.4265 4.07354 18.8854 4.63803 19.173C5.00203 19.3585 5.38956 19.4324 5.81113 19.4669C6.21702 19.5 6.71529 19.5 7.31901 19.5H7.35H7.50127C7.50734 20.3737 7.54243 20.8735 7.74524 21.2715C7.96095 21.6948 8.30516 22.039 8.72852 22.2548C9.20982 22.5 9.83988 22.5 11.1 22.5H17.4C18.6601 22.5 19.2902 22.5 19.7715 22.2548C20.1948 22.039 20.539 21.6948 20.7548 21.2715C21 20.7902 21 20.1601 21 18.9V14.1C21 12.8399 21 12.2098 20.7548 11.7285C20.539 11.3052 20.1948 10.9609 19.7715 10.7452C19.5043 10.6091 19.1912 10.5485 18.75 10.5216V10.5C18.75 8.01472 16.7353 6 14.25 6C14.25 3.51472 12.2353 1.5 9.75 1.5C7.26472 1.5 5.25 3.51472 5.25 6ZM5.93328 7.52816C6.27085 7.50058 6.70757 7.5 7.35 7.5H10.8958C10.1833 8.29613 9.75 9.34747 9.75 10.5V10.5216C9.30876 10.5485 8.99572 10.6091 8.72852 10.7452C8.30516 10.9609 7.96095 11.3052 7.74524 11.7285C7.5 12.2098 7.5 12.8399 7.5 14.1V18H7.35C6.70757 18 6.27085 17.9994 5.93328 17.9718C5.60447 17.945 5.43632 17.8963 5.31901 17.8365C5.03677 17.6927 4.8073 17.4632 4.66349 17.181C4.60372 17.0637 4.55503 16.8955 4.52816 16.5667C4.50058 16.2292 4.5 15.7924 4.5 15.15V10.35C4.5 9.70757 4.50058 9.27085 4.52816 8.93328C4.55503 8.60447 4.60372 8.43631 4.66349 8.31901C4.8073 8.03677 5.03677 7.8073 5.31902 7.66349C5.43632 7.60372 5.60447 7.55503 5.93328 7.52816ZM11.25 10.5C11.25 8.84315 12.5931 7.5 14.25 7.5C15.9069 7.5 17.25 8.84315 17.25 10.5H11.25ZM17.4 12H17.25H11.25H11.1C10.4452 12 10.0443 12.0012 9.74435 12.0257C9.60463 12.0371 9.52009 12.0514 9.46875 12.0635C9.44433 12.0693 9.42931 12.0741 9.42118 12.077C9.41338 12.0798 9.41011 12.0814 9.40951 12.0817C9.26839 12.1537 9.15365 12.2684 9.08175 12.4095C9.08144 12.4101 9.07977 12.4134 9.07699 12.4212C9.07409 12.4293 9.06927 12.4443 9.06352 12.4687C9.05143 12.5201 9.03709 12.6046 9.02567 12.7444C9.00117 13.0443 9 13.4452 9 14.1V18.9C9 19.5548 9.00117 19.9557 9.02567 20.2556C9.03709 20.3954 9.05143 20.4799 9.06352 20.5312C9.06927 20.5557 9.07409 20.5707 9.07699 20.5788C9.07977 20.5866 9.08144 20.5899 9.08175 20.5905C9.15365 20.7316 9.26839 20.8463 9.40951 20.9183C9.41011 20.9186 9.41338 20.9202 9.42118 20.923C9.42931 20.9259 9.44433 20.9307 9.46875 20.9365C9.52009 20.9486 9.60463 20.9629 9.74435 20.9743C10.0443 20.9988 10.4452 21 11.1 21H17.4C18.0548 21 18.4557 20.9988 18.7556 20.9743C18.8954 20.9629 18.9799 20.9486 19.0313 20.9365C19.0557 20.9307 19.0707 20.9259 19.0788 20.923L19.0837 20.9212C19.0881 20.9195 19.09 20.9185 19.0905 20.9183C19.2316 20.8463 19.3464 20.7316 19.4183 20.5905L19.42 20.5867L19.423 20.5788C19.4259 20.5707 19.4307 20.5557 19.4365 20.5312C19.4486 20.4799 19.4629 20.3954 19.4743 20.2556C19.4988 19.9557 19.5 19.5548 19.5 18.9V14.1C19.5 13.4452 19.4988 13.0443 19.4743 12.7444C19.4629 12.6046 19.4486 12.5201 19.4365 12.4687C19.4307 12.4443 19.4259 12.4293 19.423 12.4212L19.4196 12.4125L19.4183 12.4095C19.3464 12.2684 19.2316 12.1537 19.0905 12.0817C19.0899 12.0814 19.0866 12.0798 19.0788 12.077C19.0707 12.0741 19.0557 12.0693 19.0313 12.0635C18.9799 12.0514 18.8954 12.0371 18.7556 12.0257C18.4557 12.0012 18.0548 12 17.4 12ZM15.375 15.375C15.375 15.8049 15.1339 16.1785 14.7795 16.3679L15.2702 18.3306C15.3234 18.5437 15.1623 18.75 14.9427 18.75H13.5573C13.3377 18.75 13.1766 18.5437 13.2298 18.3306L13.7205 16.3679C13.3661 16.1785 13.125 15.8049 13.125 15.375C13.125 14.7537 13.6287 14.25 14.25 14.25C14.8713 14.25 15.375 14.7537 15.375 15.375Z" fill="#0F0F0F"/>
</g>
</svg>

<svg xmlns="http://www.w3.org/2000/svg" width="24" height="24" viewBox="0 0 24 24">
  <g class="ic-locks">
    <path fill-rule="evenodd" d="M6.75 6h6a3 3 0 1 0-6 0Zm-1.5 0v.113a2.523 2.523 0 0 0-.612.214 3 3 0 0 0-1.311 1.311c-.185.364-.26.752-.294 1.173C3 9.217 3 9.715 3 10.32v4.861c0 .604 0 1.102.033 1.508.035.421.109.809.294 1.173a3 3 0 0 0 1.311 1.311c.364.186.752.26 1.173.294.406.033.904.033 1.508.033h.182c.006.874.041 1.373.244 1.771.216.424.56.768.984.984.48.245 1.11.245 2.371.245h6.3c1.26 0 1.89 0 2.372-.245.423-.216.767-.56.983-.983C21 20.79 21 20.16 21 18.9v-4.8c0-1.26 0-1.89-.245-2.371a2.252 2.252 0 0 0-.983-.984c-.268-.136-.58-.196-1.022-.223V10.5a4.5 4.5 0 0 0-4.5-4.5 4.5 4.5 0 1 0-9 0Zm.683 1.528c.338-.027.775-.028 1.417-.028h3.546a4.484 4.484 0 0 0-1.146 3v.022c-.441.027-.754.087-1.021.223a2.25 2.25 0 0 0-.984.984c-.245.48-.245 1.11-.245 2.371V18h-.15c-.642 0-1.08 0-1.417-.028-.329-.027-.497-.076-.614-.136a1.5 1.5 0 0 1-.656-.655c-.06-.117-.108-.286-.135-.614-.027-.338-.028-.775-.028-1.417v-4.8c0-.642 0-1.08.028-1.417.027-.329.076-.497.135-.614a1.5 1.5 0 0 1 .656-.656c.117-.06.285-.108.614-.135ZM11.25 10.5a3 3 0 1 1 6 0h-6ZM17.4 12h-6.3c-.655 0-1.056.001-1.356.026a1.92 1.92 0 0 0-.275.037.461.461 0 0 0-.06.019.75.75 0 0 0-.332.34.447.447 0 0 0-.013.047 1.924 1.924 0 0 0-.038.275C9 13.044 9 13.445 9 14.1v4.8c0 .655.001 1.056.026 1.356.011.14.025.224.038.275a.444.444 0 0 0 .018.06.75.75 0 0 0 .34.332.461.461 0 0 0 .047.014c.051.012.136.026.275.037.3.025.701.026 1.356.026h6.3c.655 0 1.056-.001 1.356-.026.14-.011.224-.025.275-.038a.458.458 0 0 0 .048-.013l.005-.002.006-.003a.75.75 0 0 0 .328-.328l.002-.003.003-.008a.454.454 0 0 0 .014-.048c.012-.051.026-.136.037-.275.025-.3.026-.701.026-1.356v-4.8c0-.655-.001-1.056-.026-1.356a1.922 1.922 0 0 0-.038-.275.458.458 0 0 0-.013-.048l-.003-.008-.002-.004a.75.75 0 0 0-.34-.332.458.458 0 0 0-.047-.014 1.922 1.922 0 0 0-.275-.037C18.456 12 18.055 12 17.4 12Zm-2.025 3.375c0 .43-.241.803-.595.993l.49 1.963a.338.338 0 0 1-.327.419h-1.386a.338.338 0 0 1-.327-.42l.49-1.962a1.125 1.125 0 1 1 1.655-.993Z" class="Icon"/>
  </g>
</svg>
